X: 27
T:Shaskeen, the (E.Galw.)
R:reel
S:Mike Rafferty
H:This is the East Galway Shaskeen. 
H:Shaskeen = seisgeann, a fenny country or marsh.
D:Dangerous Reel
Z:Lesl
M:C|
L:1/8
Q:1/2=70
K:G
DG~G2 ABcA|d2ed cAA2|B2BG AcAF|GEAG FDDA|
DG~G2 ABcA|d2ed caag|f2fd edcA|1 AGFA ~G3F:|2 AGFA ~G3z||
|:dggf g2fg|abag fdde|f~f2d g2fg|
[1 abag fdd2|dggf ~g3z|abag fdde|f~f2d edcA|AGFA ~G3z:|
[2 abag fddc| B2BG AcAF|GBAG Fdd2|f~f2d edcA|AGFA ~G3z||

